images/16759089.svg

<?xml version="1.0" encoding="UTF-8"?>
<svg xmlns="http://www.w3.org/2000/svg" xmlns:xlink="http://www.w3.org/1999/xlink" width="300pt" height="300pt" viewBox="0 0 300 300" version="1.1">
<defs>
<g>
<symbol overflow="visible" id="glyph0-0">
<path style="stroke:none;" d="M 0.546875 1.9375 L 0.546875 -7.75 L 6.046875 -7.75 L 6.046875 1.9375 Z M 1.171875 1.328125 L 5.4375 1.328125 L 5.4375 -7.140625 L 1.171875 -7.140625 Z M 1.171875 1.328125 "/>
</symbol>
<symbol overflow="visible" id="glyph0-1">
<path style="stroke:none;" d="M 4.328125 -7.28125 C 3.546875 -7.28125 2.921875 -6.984375 2.453125 -6.390625 C 1.992188 -5.804688 1.765625 -5.007812 1.765625 -4 C 1.765625 -2.988281 1.992188 -2.1875 2.453125 -1.59375 C 2.921875 -1.007812 3.546875 -0.71875 4.328125 -0.71875 C 5.117188 -0.71875 5.742188 -1.007812 6.203125 -1.59375 C 6.660156 -2.1875 6.890625 -2.988281 6.890625 -4 C 6.890625 -5.007812 6.660156 -5.804688 6.203125 -6.390625 C 5.742188 -6.984375 5.117188 -7.28125 4.328125 -7.28125 Z M 4.328125 -8.171875 C 5.453125 -8.171875 6.351562 -7.789062 7.03125 -7.03125 C 7.707031 -6.28125 8.046875 -5.269531 8.046875 -4 C 8.046875 -2.738281 7.707031 -1.726562 7.03125 -0.96875 C 6.351562 -0.21875 5.453125 0.15625 4.328125 0.15625 C 3.203125 0.15625 2.300781 -0.21875 1.625 -0.96875 C 0.957031 -1.71875 0.625 -2.726562 0.625 -4 C 0.625 -5.269531 0.957031 -6.28125 1.625 -7.03125 C 2.300781 -7.789062 3.203125 -8.171875 4.328125 -8.171875 Z M 4.328125 -8.171875 "/>
</symbol>
<symbol overflow="visible" id="glyph0-2">
<path style="stroke:none;" d="M 1.078125 -8.015625 L 2.546875 -8.015625 L 6.09375 -1.3125 L 6.09375 -8.015625 L 7.15625 -8.015625 L 7.15625 0 L 5.6875 0 L 2.125 -6.703125 L 2.125 0 L 1.078125 0 Z M 1.078125 -8.015625 "/>
</symbol>
<symbol overflow="visible" id="glyph0-3">
<path style="stroke:none;" d="M 1.078125 -8.015625 L 2.171875 -8.015625 L 2.171875 -4.734375 L 6.109375 -4.734375 L 6.109375 -8.015625 L 7.1875 -8.015625 L 7.1875 0 L 6.109375 0 L 6.109375 -3.8125 L 2.171875 -3.8125 L 2.171875 0 L 1.078125 0 Z M 1.078125 -8.015625 "/>
</symbol>
</g>
</defs>
<g id="surface40357">
<rect x="0" y="0" width="300" height="300" style="fill:rgb(100%,100%,100%);fill-opacity:1;stroke:none;"/>
<path style="fill:none;stroke-width:1.2;stroke-linecap:butt;stroke-linejoin:miter;stroke:rgb(0%,0%,0%);stroke-opacity:1;stroke-miterlimit:10;" d="M 35.25 133.414062 L 60.765625 132.640625 "/>
<path style="fill:none;stroke-width:1.2;stroke-linecap:butt;stroke-linejoin:miter;stroke:rgb(0%,0%,0%);stroke-opacity:1;stroke-miterlimit:10;" d="M 60.765625 132.640625 L 67.476562 143.496094 "/>
<path style="fill:none;stroke-width:1.2;stroke-linecap:butt;stroke-linejoin:miter;stroke:rgb(100%,0%,0%);stroke-opacity:1;stroke-miterlimit:10;" d="M 67.476562 143.496094 L 74.191406 154.351562 "/>
<path style="fill:none;stroke-width:1.2;stroke-linecap:butt;stroke-linejoin:miter;stroke:rgb(100%,0%,0%);stroke-opacity:1;stroke-miterlimit:10;" d="M 74.191406 154.351562 L 86.949219 153.964844 "/>
<path style="fill:none;stroke-width:1.2;stroke-linecap:butt;stroke-linejoin:miter;stroke:rgb(0%,0%,0%);stroke-opacity:1;stroke-miterlimit:10;" d="M 86.949219 153.964844 L 99.707031 153.578125 "/>
<path style=" stroke:none;fill-rule:nonzero;fill:rgb(100%,100%,100%);fill-opacity:1;" d="M 70.191406 147.851562 L 79.191406 147.851562 L 79.191406 160.851562 L 70.191406 160.851562 Z M 70.191406 147.851562 "/>
<g style="fill:rgb(100%,0%,0%);fill-opacity:1;">
  <use xlink:href="#glyph0-1" x="70.191406" y="157.75293"/>
</g>
<path style="fill:none;stroke-width:1.2;stroke-linecap:butt;stroke-linejoin:miter;stroke:rgb(0%,0%,0%);stroke-opacity:1;stroke-miterlimit:10;" d="M 102.617188 154.320312 L 104.472656 147.015625 "/>
<path style="fill:none;stroke-width:1.2;stroke-linecap:butt;stroke-linejoin:miter;stroke:rgb(100%,0%,0%);stroke-opacity:1;stroke-miterlimit:10;" d="M 104.472656 147.015625 L 106.328125 139.710938 "/>
<path style="fill:none;stroke-width:1.2;stroke-linecap:butt;stroke-linejoin:miter;stroke:rgb(0%,0%,0%);stroke-opacity:1;stroke-miterlimit:10;" d="M 96.792969 152.839844 L 98.652344 145.535156 "/>
<path style="fill:none;stroke-width:1.2;stroke-linecap:butt;stroke-linejoin:miter;stroke:rgb(100%,0%,0%);stroke-opacity:1;stroke-miterlimit:10;" d="M 98.652344 145.535156 L 100.507812 138.230469 "/>
<path style=" stroke:none;fill-rule:nonzero;fill:rgb(0%,0%,0%);fill-opacity:1;" d="M 113.132812 175.289062 L 103.535156 151.210938 L 95.875 155.949219 Z M 113.132812 175.289062 "/>
<path style=" stroke:none;fill-rule:nonzero;fill:rgb(100%,100%,100%);fill-opacity:1;" d="M 99.417969 132.472656 L 108.417969 132.472656 L 108.417969 145.472656 L 99.417969 145.472656 Z M 99.417969 132.472656 "/>
<g style="fill:rgb(100%,0%,0%);fill-opacity:1;">
  <use xlink:href="#glyph0-1" x="99.417969" y="142.374023"/>
</g>
<path style="fill:none;stroke-width:1.2;stroke-linecap:butt;stroke-linejoin:miter;stroke:rgb(0%,0%,0%);stroke-opacity:1;stroke-miterlimit:10;" d="M 113.132812 175.289062 L 90.136719 186.371094 "/>
<path style="fill:none;stroke-width:1.2;stroke-linecap:butt;stroke-linejoin:miter;stroke:rgb(0%,0%,0%);stroke-opacity:1;stroke-miterlimit:10;" d="M 113.132812 175.289062 L 133.320312 159.667969 "/>
<path style="fill:none;stroke-width:1.2;stroke-linecap:butt;stroke-linejoin:miter;stroke:rgb(0%,0%,0%);stroke-opacity:1;stroke-miterlimit:10;" d="M 130.777344 193.734375 L 113.132812 175.289062 "/>
<path style="fill:none;stroke-width:1.2;stroke-linecap:butt;stroke-linejoin:miter;stroke:rgb(0%,0%,0%);stroke-opacity:1;stroke-miterlimit:10;" d="M 90.136719 186.371094 L 93.574219 211.667969 "/>
<path style="fill:none;stroke-width:1.2;stroke-linecap:butt;stroke-linejoin:miter;stroke:rgb(0%,0%,0%);stroke-opacity:1;stroke-miterlimit:10;" d="M 93.574219 211.667969 L 118.691406 216.214844 "/>
<path style="fill:none;stroke-width:1.2;stroke-linecap:butt;stroke-linejoin:miter;stroke:rgb(0%,0%,0%);stroke-opacity:1;stroke-miterlimit:10;" d="M 118.691406 216.214844 L 130.777344 193.734375 "/>
<path style="fill:none;stroke-width:1.2;stroke-linecap:butt;stroke-linejoin:miter;stroke:rgb(0%,0%,0%);stroke-opacity:1;stroke-miterlimit:10;" d="M 131.183594 196.707031 L 143.828125 194.992188 "/>
<path style="fill:none;stroke-width:1.2;stroke-linecap:butt;stroke-linejoin:miter;stroke:rgb(100%,0%,0%);stroke-opacity:1;stroke-miterlimit:10;" d="M 143.828125 194.992188 L 156.476562 193.273438 "/>
<path style="fill:none;stroke-width:1.2;stroke-linecap:butt;stroke-linejoin:miter;stroke:rgb(0%,0%,0%);stroke-opacity:1;stroke-miterlimit:10;" d="M 130.375 190.757812 L 143.023438 189.039062 "/>
<path style="fill:none;stroke-width:1.2;stroke-linecap:butt;stroke-linejoin:miter;stroke:rgb(100%,0%,0%);stroke-opacity:1;stroke-miterlimit:10;" d="M 143.023438 189.039062 L 155.667969 187.320312 "/>
<path style=" stroke:none;fill-rule:nonzero;fill:rgb(100%,100%,100%);fill-opacity:1;" d="M 152.074219 183.796875 L 161.074219 183.796875 L 161.074219 196.796875 L 152.074219 196.796875 Z M 152.074219 183.796875 "/>
<g style="fill:rgb(100%,0%,0%);fill-opacity:1;">
  <use xlink:href="#glyph0-1" x="152.074219" y="193.698242"/>
</g>
<path style="fill:none;stroke-width:1.2;stroke-linecap:butt;stroke-linejoin:miter;stroke:rgb(0%,0%,0%);stroke-opacity:1;stroke-miterlimit:10;" d="M 133.320312 159.667969 L 129.882812 134.371094 "/>
<path style="fill:none;stroke-width:1.2;stroke-linecap:butt;stroke-linejoin:miter;stroke:rgb(0%,0%,0%);stroke-opacity:1;stroke-miterlimit:10;" d="M 133.320312 159.667969 L 145.128906 164.503906 "/>
<path style="fill:none;stroke-width:1.2;stroke-linecap:butt;stroke-linejoin:miter;stroke:rgb(0%,0%,100%);stroke-opacity:1;stroke-miterlimit:10;" d="M 145.128906 164.503906 L 156.941406 169.339844 "/>
<path style="fill:none;stroke-width:1.2;stroke-linecap:butt;stroke-linejoin:miter;stroke:rgb(0%,0%,0%);stroke-opacity:1;stroke-miterlimit:10;" d="M 129.882812 134.371094 L 106.261719 124.699219 "/>
<path style="fill:none;stroke-width:1.2;stroke-linecap:butt;stroke-linejoin:miter;stroke:rgb(0%,0%,0%);stroke-opacity:1;stroke-miterlimit:10;" d="M 129.796875 127.847656 L 110.898438 120.109375 "/>
<path style="fill:none;stroke-width:1.2;stroke-linecap:butt;stroke-linejoin:miter;stroke:rgb(0%,0%,0%);stroke-opacity:1;stroke-miterlimit:10;" d="M 150.070312 118.75 L 129.882812 134.371094 "/>
<path style="fill:none;stroke-width:1.2;stroke-linecap:butt;stroke-linejoin:miter;stroke:rgb(0%,0%,0%);stroke-opacity:1;stroke-miterlimit:10;" d="M 106.261719 124.699219 L 102.824219 99.40625 "/>
<path style="fill:none;stroke-width:1.2;stroke-linecap:butt;stroke-linejoin:miter;stroke:rgb(0%,0%,0%);stroke-opacity:1;stroke-miterlimit:10;" d="M 102.824219 99.40625 L 123.011719 83.785156 "/>
<path style="fill:none;stroke-width:1.2;stroke-linecap:butt;stroke-linejoin:miter;stroke:rgb(0%,0%,0%);stroke-opacity:1;stroke-miterlimit:10;" d="M 108.519531 102.59375 L 124.667969 90.097656 "/>
<path style="fill:none;stroke-width:1.2;stroke-linecap:butt;stroke-linejoin:miter;stroke:rgb(0%,0%,0%);stroke-opacity:1;stroke-miterlimit:10;" d="M 123.011719 83.785156 L 146.636719 93.457031 "/>
<path style="fill:none;stroke-width:1.2;stroke-linecap:butt;stroke-linejoin:miter;stroke:rgb(0%,0%,0%);stroke-opacity:1;stroke-miterlimit:10;" d="M 146.636719 93.457031 L 150.070312 118.75 "/>
<path style="fill:none;stroke-width:1.2;stroke-linecap:butt;stroke-linejoin:miter;stroke:rgb(0%,0%,0%);stroke-opacity:1;stroke-miterlimit:10;" d="M 141.027344 96.792969 L 143.777344 117.03125 "/>
<path style="fill:none;stroke-width:1.2;stroke-linecap:butt;stroke-linejoin:miter;stroke:rgb(0%,0%,100%);stroke-opacity:1;stroke-miterlimit:10;" d="M 156.941406 169.339844 L 167.035156 161.527344 "/>
<path style="fill:none;stroke-width:1.2;stroke-linecap:butt;stroke-linejoin:miter;stroke:rgb(0%,0%,0%);stroke-opacity:1;stroke-miterlimit:10;" d="M 167.035156 161.527344 L 177.128906 153.714844 "/>
<path style=" stroke:none;fill-rule:nonzero;fill:rgb(100%,100%,100%);fill-opacity:1;" d="M 148.941406 162.839844 L 165.941406 162.839844 L 165.941406 175.839844 L 148.941406 175.839844 Z M 148.941406 162.839844 "/>
<g style="fill:rgb(0%,0%,100%);fill-opacity:1;">
  <use xlink:href="#glyph0-2" x="148.941406" y="172.741211"/>
  <use xlink:href="#glyph0-3" x="156.924805" y="172.741211"/>
</g>
<path style="fill:none;stroke-width:1.2;stroke-linecap:butt;stroke-linejoin:miter;stroke:rgb(0%,0%,0%);stroke-opacity:1;stroke-miterlimit:10;" d="M 180.105469 153.3125 L 178.386719 140.664062 "/>
<path style="fill:none;stroke-width:1.2;stroke-linecap:butt;stroke-linejoin:miter;stroke:rgb(100%,0%,0%);stroke-opacity:1;stroke-miterlimit:10;" d="M 178.386719 140.664062 L 176.667969 128.019531 "/>
<path style="fill:none;stroke-width:1.2;stroke-linecap:butt;stroke-linejoin:miter;stroke:rgb(0%,0%,0%);stroke-opacity:1;stroke-miterlimit:10;" d="M 174.152344 154.121094 L 172.4375 141.472656 "/>
<path style="fill:none;stroke-width:1.2;stroke-linecap:butt;stroke-linejoin:miter;stroke:rgb(100%,0%,0%);stroke-opacity:1;stroke-miterlimit:10;" d="M 172.4375 141.472656 L 170.71875 128.824219 "/>
<path style="fill:none;stroke-width:1.2;stroke-linecap:butt;stroke-linejoin:miter;stroke:rgb(0%,0%,0%);stroke-opacity:1;stroke-miterlimit:10;" d="M 177.128906 153.714844 L 188.941406 158.550781 "/>
<path style="fill:none;stroke-width:1.2;stroke-linecap:butt;stroke-linejoin:miter;stroke:rgb(100%,0%,0%);stroke-opacity:1;stroke-miterlimit:10;" d="M 188.941406 158.550781 L 200.753906 163.386719 "/>
<path style=" stroke:none;fill-rule:nonzero;fill:rgb(100%,100%,100%);fill-opacity:1;" d="M 169.695312 121.921875 L 178.695312 121.921875 L 178.695312 134.921875 L 169.695312 134.921875 Z M 169.695312 121.921875 "/>
<g style="fill:rgb(100%,0%,0%);fill-opacity:1;">
  <use xlink:href="#glyph0-1" x="169.695312" y="131.823242"/>
</g>
<path style="fill:none;stroke-width:1.2;stroke-linecap:butt;stroke-linejoin:miter;stroke:rgb(100%,0%,0%);stroke-opacity:1;stroke-miterlimit:10;" d="M 200.753906 163.386719 L 210.847656 155.578125 "/>
<path style="fill:none;stroke-width:1.2;stroke-linecap:butt;stroke-linejoin:miter;stroke:rgb(0%,0%,0%);stroke-opacity:1;stroke-miterlimit:10;" d="M 210.847656 155.578125 L 220.941406 147.765625 "/>
<path style=" stroke:none;fill-rule:nonzero;fill:rgb(100%,100%,100%);fill-opacity:1;" d="M 196.753906 156.886719 L 205.753906 156.886719 L 205.753906 169.886719 L 196.753906 169.886719 Z M 196.753906 156.886719 "/>
<g style="fill:rgb(100%,0%,0%);fill-opacity:1;">
  <use xlink:href="#glyph0-1" x="196.753906" y="166.788086"/>
</g>
<path style="fill:none;stroke-width:1.2;stroke-linecap:butt;stroke-linejoin:miter;stroke:rgb(0%,0%,0%);stroke-opacity:1;stroke-miterlimit:10;" d="M 220.941406 147.765625 L 244.5625 157.4375 "/>
<path style="fill:none;stroke-width:1.2;stroke-linecap:butt;stroke-linejoin:miter;stroke:rgb(0%,0%,0%);stroke-opacity:1;stroke-miterlimit:10;" d="M 221.027344 154.289062 L 239.925781 162.027344 "/>
<path style="fill:none;stroke-width:1.2;stroke-linecap:butt;stroke-linejoin:miter;stroke:rgb(0%,0%,0%);stroke-opacity:1;stroke-miterlimit:10;" d="M 244.5625 157.4375 L 264.75 141.8125 "/>
</g>
</svg>

<svg xmlns="http://www.w3.org/2000/svg" xmlns:xlink="http://www.w3.org/1999/xlink" width="300pt" height="300pt" viewBox="0 0 300 300"><defs><symbol overflow="visible"><path d="M.547 1.938V-7.75h5.5v9.688zm.625-.61h4.266v-8.47H1.171zm0 0"/></symbol><symbol overflow="visible" id="a"><path d="M4.328-7.28c-.78 0-1.406.296-1.875.89-.46.585-.687 1.382-.687 2.39 0 1.012.226 1.813.687 2.406.47.586 1.094.875 1.875.875.79 0 1.414-.288 1.875-.874.457-.593.688-1.394.688-2.406 0-1.008-.23-1.805-.687-2.39-.46-.594-1.086-.89-1.875-.89zm0-.892c1.125 0 2.024.383 2.703 1.14C7.708-6.28 8.048-5.27 8.048-4c0 1.262-.34 2.273-1.016 3.03C6.353-.22 5.454.157 4.33.157S2.3-.22 1.625-.97c-.668-.75-1-1.757-1-3.03 0-1.27.332-2.28 1-3.03.676-.76 1.578-1.142 2.703-1.142zm0 0"/></symbol><symbol overflow="visible" id="b"><path d="M1.078-8.016h1.47l3.546 6.704v-6.704h1.062V0H5.688L2.124-6.703V0H1.078zm0 0"/></symbol><symbol overflow="visible" id="c"><path d="M1.078-8.016h1.094v3.282H6.11v-3.282h1.077V0H6.11v-3.813H2.17V0H1.078zm0 0"/></symbol></defs><g><path fill="#fff" d="M0 0h300v300H0z"/><path d="M35.25 133.414l25.516-.773M60.766 132.64l6.71 10.856" stroke-width="1.2" stroke="#000" stroke-miterlimit="10" fill="none"/><path d="M67.477 143.496l6.714 10.856M74.19 154.352l12.76-.387" stroke-width="1.2" stroke="#f00" stroke-miterlimit="10" fill="none"/><path d="M86.95 153.965l12.757-.387" stroke-width="1.2" stroke="#000" stroke-miterlimit="10" fill="none"/><path d="M70.19 147.852h9v13h-9zm0 0" fill="#fff"/><use xlink:href="#a" x="70.191" y="157.753" fill="#f00"/><path d="M102.617 154.32l1.856-7.304" stroke-width="1.2" stroke="#000" stroke-miterlimit="10" fill="none"/><path d="M104.473 147.016l1.855-7.305" stroke-width="1.2" stroke="#f00" stroke-miterlimit="10" fill="none"/><path d="M96.793 152.84l1.86-7.305" stroke-width="1.2" stroke="#000" stroke-miterlimit="10" fill="none"/><path d="M98.652 145.535l1.856-7.305" stroke-width="1.2" stroke="#f00" stroke-miterlimit="10" fill="none"/><path d="M113.133 175.29l-9.598-24.08-7.66 4.74zm0 0"/><path d="M99.418 132.473h9v13h-9zm0 0" fill="#fff"/><use xlink:href="#a" x="99.418" y="142.374" fill="#f00"/><path d="M113.133 175.29l-22.996 11.08M113.133 175.29l20.187-15.622M130.777 193.734l-17.644-18.445M90.137 186.37l3.437 25.298M93.574 211.668l25.117 4.547M118.69 216.215l12.087-22.48M131.184 196.707l12.644-1.715" stroke-width="1.2" stroke="#000" stroke-miterlimit="10" fill="none"/><path d="M143.828 194.992l12.65-1.72" stroke-width="1.2" stroke="#f00" stroke-miterlimit="10" fill="none"/><path d="M130.375 190.758l12.648-1.72" stroke-width="1.2" stroke="#000" stroke-miterlimit="10" fill="none"/><path d="M143.023 189.04l12.645-1.72" stroke-width="1.2" stroke="#f00" stroke-miterlimit="10" fill="none"/><path d="M152.074 183.797h9v13h-9zm0 0" fill="#fff"/><use xlink:href="#a" x="152.074" y="193.698" fill="#f00"/><path d="M133.32 159.668l-3.437-25.297M133.32 159.668l11.81 4.836" stroke-width="1.2" stroke="#000" stroke-miterlimit="10" fill="none"/><path d="M145.13 164.504l11.81 4.836" stroke-width="1.2" stroke="#00f" stroke-miterlimit="10" fill="none"/><path d="M129.883 134.37l-23.62-9.67M129.797 127.848l-18.9-7.74M150.07 118.75l-20.187 15.62M106.262 124.7l-3.438-25.294M102.824 99.406l20.188-15.62M108.52 102.594l16.148-12.496M123.012 83.785l23.625 9.672M146.637 93.457l3.433 25.293M141.027 96.793l2.75 20.238" stroke-width="1.2" stroke="#000" stroke-miterlimit="10" fill="none"/><path d="M156.94 169.34l10.095-7.813" stroke-width="1.2" stroke="#00f" stroke-miterlimit="10" fill="none"/><path d="M167.035 161.527l10.094-7.812" stroke-width="1.2" stroke="#000" stroke-miterlimit="10" fill="none"/><path d="M148.94 162.84h17v13h-17zm0 0" fill="#fff"/><g fill="#00f"><use xlink:href="#b" x="148.941" y="172.741"/><use xlink:href="#c" x="156.925" y="172.741"/></g><path d="M180.105 153.313l-1.718-12.65" stroke-width="1.2" stroke="#000" stroke-miterlimit="10" fill="none"/><path d="M178.387 140.664l-1.72-12.644" stroke-width="1.2" stroke="#f00" stroke-miterlimit="10" fill="none"/><path d="M174.152 154.12l-1.714-12.647" stroke-width="1.2" stroke="#000" stroke-miterlimit="10" fill="none"/><path d="M172.438 141.473l-1.72-12.65" stroke-width="1.2" stroke="#f00" stroke-miterlimit="10" fill="none"/><path d="M177.13 153.715l11.81 4.836" stroke-width="1.2" stroke="#000" stroke-miterlimit="10" fill="none"/><path d="M188.94 158.55l11.814 4.837" stroke-width="1.2" stroke="#f00" stroke-miterlimit="10" fill="none"/><path d="M169.695 121.922h9v13h-9zm0 0" fill="#fff"/><use xlink:href="#a" x="169.695" y="131.823" fill="#f00"/><path d="M200.754 163.387l10.094-7.81" stroke-width="1.2" stroke="#f00" stroke-miterlimit="10" fill="none"/><path d="M210.848 155.578l10.093-7.812" stroke-width="1.2" stroke="#000" stroke-miterlimit="10" fill="none"/><path d="M196.754 156.887h9v13h-9zm0 0" fill="#fff"/><use xlink:href="#a" x="196.754" y="166.788" fill="#f00"/><path d="M220.94 147.766l23.623 9.672M221.027 154.29l18.9 7.737M244.563 157.438l20.187-15.625" stroke-width="1.2" stroke="#000" stroke-miterlimit="10" fill="none"/></g></svg>
